X:1
T:Binnorie
M:2/4
L:1/8
K:D
 z E| F2 F3/2- F/2|d-d c3/2 B/2| d2 F3/2- F/2| F2 D3/2- E/2| F3 A|\
 F2 EF| A2 BE| F3/2- F/2 F3/2 F/2| d2 c3/2- B/2| d2 F3/2- E/2| E2 D3/2 E/2|\
 F3/2 F/2F/2 A3/2| F2 E3/2 F/2| A2 B2|||

